X: 1772
T: Sevildim Sanma
C: Ârif Sâmi Toker
O: Turkey
F: http://compmusic.upf.edu/node/140
N: sultaniyegah--sarki--curcuna--sevildim_sanma--arif_sami_toker
N: makam= sultaniyegah
N: form= sarki
N: usul= curcuna = 10/8
M: 10/8
L: 1/16
K: C _B ^c  
Q: 1/4=240
%%MIDI tuningsystem comma53
A6d4e4f4d2  | f18z2  | e2f2 ^f2g4f2 g2b2 a2g2  | \
w:  ARANAĞME  |   |   | 
g18z2  | a2g2 f2e2 d2d2 c2B2 A2c2  | 
w:   |   | 
B18z2  | B4 A2A2 G2A2 G2F4G2  | A18z2  | \
w:   |   |   | 
A2B2 =B2=c4B2 c2_e2 d2c2  | 
w:   | 
=c18z2  | =c2d2 B4 A2A2 G2G2 F2G2  | \
w:   |   | 
E18z2  | D6A4G4F4E2  | A2G2 F2E2 D2A2 G2F2 E2D2  | 
w:   |   |   | 
=C2D2 E2F2 E2E2 D2D4^C2  | D4 A2F2 A2D8z2  | \
w:   |   | 
A6d4e4f4d2  | f18z2  | 
w:  Se vil dim  san  |  ma    | 
f6e4d4c4d2  | e18z2  | g6f4e4d4a2  | a2g2 f2e2 d2c8-c2  | \
w:  Co şup  al dan  |  ma    |  Ka dı na  kan  |  ma    | 
d4 B2B2 A2A2 G2F4G2  | 
w:  O  *  bir  *  ya *  lan  | 
A18z2  | A6d4d2 c2B2 A2B2  | {c}B18z2  | \
w:  dır    |  Se ver  al *  da  |  *  tır    | 
G6=c4c2 B2A2 ^G2B2  | A18z2  | G6B4A2 G2F4E2  | 
w:  Gü ler  at *  la  |  tır    |  Ta nı maz  *  ha  | 
A2G2 F2E2 D2A2 G2F2 E2D2  | z4 E2F2 E2E2 D2D4C2  | \
w:  tır    |  O  ne  *  ya *  man  | 
D6A4B2 c2d6  | 
w:  dır   SAZ  | 
A6d4d2 c2B2 A2B2  | {c}B18z2  | G6=c4c2 B2A2 ^G2B2  | \
w:  Se ver  al *  da  |  *  tır    |  Gü ler  at *  la  | 
A18z2  | G6B4A2 G2F4E2  | 
w:  tır    |  Ta nı maz  *  ha  | 
A2G2 F2E2 D2A2 G2F2 E2D2  | z4 E2F2 E2E2 D2D4C2  | \
w:  tır    |  O  ne  *  ya *  man  | 
D18z2  | |


